X:1
T:Scott Joplin's New Rag - original edition
T:Scott Joplin's New Rag
T:By  SCOTT  JOPLIN
T:Original Edition 1912
T:Public Domain
T:Public Domain
T:Public Domain
T:Public Domain
C:Scott Joplin
Z:Public Domain
%%score { ( 1 4 ) | ( 2 3 ) }
L:1/8
Q:1/4=76
M:2/4
K:C
V:1 treble nm="Piano" snm="Pno."
V:4 treble 
V:2 bass 
V:3 bass 
V:1
!f!"^Allegro moderato." C/D/!<(!E/F/- F/G/A/!<)!B/ | c/B/!>(!A/G/- G/F/E!>)! | %2
!mf! (G/A/G/^F/) (G/A/G/F/ | G) || [Gg][^FA^f][=FB=f] |:!mf! [ce]>e!<(! [c^d]/e/g/[egc']/-!<)! | %6
!>(! [egc']/b/[ea]!>)! [^da]<[eg] | [ce]>[ce] ([^A^d]/e/[Ag]/e/ | B2 [Bd]/).d'/(d/^d/) | %9
 [ce]>e [c^d]/e/g/[egc']/- | [egc']/b/[ea] [^da]<[eg] | %11
 ([^dac']/^f/!<(!a/!>![dab]/-) [dab]/c'/!<)![dab] |!f! [egbe'] !>![Gcg]!>![^FA^f]!>![=FB=f] | %13
!mf! [ce]>e [c^d]/e/g/[egc']/- | [egc']/b/[ea] [^da]<[eg] | %15
!f! [e^gd'][ege']/[egd']/- [egd'][ebe']/d'/ | ([ac']/e'/c'/a/ e/c/A/E/) | FG/A/-!<(! A/B/c!<)! | %18
 !>![A^da]2 !>![Geg]2 | [Bfa]/!>![Bfg]!>![Bfg]/- [Bfg]/a/g |1 %20
 [egc']!>![Gcg]!>![^FA^f]!>![=FB=f] :|2 [cec'] e/f/- f/^d/e |: %22
!mp! (e/^f/^g/a/!<(! b/c'/d'/e'/)!<)! | [ead']/c'/b/!>![eac']/- [eac']/b/a | %24
 [d^gc']/b/^a/!>(!!>![dgb]/- [dgb]/=a/g!>)! | [ceb]/a/^g/!>![cea]/- [cea]/^d/e | %26
 (e/^f/^g/a/!<(! b/c'/d'/e'/)!<)! | [ead']/c'/b/[eac']/-!<(! [eac']/b/a!<)! |!f! a/c'/b/a/- a/b/a | %29
 [e^g]e/f/- f/^d/e | (e/^f/^g/a/!<(! b/c'/d'/e'/)!<)! | [ead']/c'/b/[eac']/- [eac']/b/a | %32
 [d^gc']/b/^a/[dgb]/- [dgb]/=a/g | b/a/^g/a/- a/a/[cea] | a/f/d/A/- A/d/[Af] | e/c/A/E/- E/F/E | %36
 d/c/B/e/- e/d/c/B/ |1 A e/f/- f/^d/e :|2 Ac Bd/^d/ ||!mf! [ce]>e!<(! [c^d]/e/g/[egc']/-!<)! | %40
!>(! [egc']/b/[ea]!>)! [^da]<[eg] | [ce]>[ce] [^A^d]/e/[Ag]/e/ | B2 [Bd]/.d'/(d/^d/) | %43
 [ce]>e [c^d]/e/g/[egc']/- | [egc']/b/[ea] [^da]<[eg] | [^dac']/^f/a/!>![dab]/- [dab]/c'/[dab] | %46
 [egbe'] !>![Gcg]!>![^FA^f]!>![=FB=f] | [ce]>e!<(! [c^d]/e/g/[egc']/-!<)! | %48
!>(! [egc']/b/[ea]!>)! [^da]<[eg] | [e^gd'][ege']/[egd']/- [egd']([ebe']/d'/) | %50
 ([ac']/e'/c'/a/ e/c/A/E/) | FG/A/-!<(! A/B/c!<)! | !>![A^da]2 !>![Geg]2 | %53
 [Bfa]/!>![Bfg]!>![Bfg]/- [Bfg]/a/g | [cec'] [Gg]/[Gg]/ [Gg][G^cg] |:!mf! [GBfg]2- [GBfg]/g/[GBd] | %56
 [Gc]/!>!g[Geg]/- [Geg][^Gde^g] | [A^cea]2- [Acea]/a/[Ace] | [Ad]/!>!a[Afa]/- [Afa]!ff![_Bea] | %59
 [Afa]>^A B/!>![Bfg]B/ | [fa]/^A/B/[Bfg]/- [Bfg]/B/[dfg] | [cea]>B c/!>![eg]c/ | %62
 [cea]/B/c/[ceg]/- [ceg][G^ceg] |!mf! [GBfg]2- [GBfg]/g/[GBd] | [Gc]/!>!g[Geg]/- [Geg][^Gde^g] | %65
 [A^cea]2- [Acea]/a/[Ace] | [Ad]/a[Afa]/- [Afa]/f/[Ada] |!ff! [c^da]>^f (^d/f/[cda]) | %68
 [ceg][cea]/[ceg]/- [ceg]/G/[G_Be] | [FAf](d/c/ B/d/A/B/) |1 [Ec]g/g/ g[G^cg] :|2 %71
 [Ec]!ff! !>![cegc']2 !>![ce^fc'] || !>![B^d^fb]^F/B/- (B/^f/b) | [Ae^fa] !>![cefc']2 !>![cefc'] | %74
 !>![B^d^fb](B/^A/ B) ||[K:G]!mf! (e/f/) | g/f/=f/e/- e/^c/B/_B/ | (A/=B/c/A/ c/^d/f) | %78
 g/f/=f/e/- e/^c/B/_B/ | A/B/c/A/ F(A/B/ | c)(F/G/ A)(^D/E/ | F)(C/=D/ _E)(A,/B,/ | %82
 C)(A,/B,/ C)!>![cefc'] | !>![B^dfb]B/^A/ B(e/f/) | g/f/=f/e/- e/^c/B/_B/ | A/=B/c/A/ c/^d/f | %86
 g/f/=f/e/- e/^c/B/_B/ | A/=B/c/A/ F z | a/_a/g/f/- f/=f/e/_e/ | d/^c/=c/B/- B/_B/=A/_A/ | %90
 G(g/^f/ g)(g/f/ | g) !>![Gcg]!>![^FA^f]!>![=FB=f] ||[K:C]!mf! [ce]>e!<(! [c^d]/e/g/[egc']/-!<)! | %93
!>(! [egc']/b/[ea]!>)! [^da]<[eg] | [ce]>[ce] ([^A^d]/e/[Ag]/e/ | ff/e/ [Bd]/).d'/(d/^d/) | %96
 [ce]>e [c^d]/e/g/[egc']/- | [egc']/b/[ea] [^da]<[eg] | %98
 ([^dac']/^f/a/!<(!!>![dab]/-) [dab]/c'/[dab]!<)! |!f! [egbe'] !>![Gcg]!>![^FA^f]!>![=FB=f] | %100
!mf! [ce]>e [c^d]/e/g/[egc']/- | [egc']/b/[ea] [^da]<[eg] | %102
!f! [e^gd'][ege']/[egd']/- [egd'][ebe']/d'/ | ([ac']/e'/c'/a/ e/c/A/E/) | FG/A/-!<(! A/B/c!<)! | %105
 !>![A^da]2 !>![Geg]2 | [Bfa]/!>![Bfg]!>![Bfg]/- [Bfg]/a/g ||!ff!"^Coda" c'/b/_b/a/- a/_a/g/^f/ | %108
 =f/e/_e/d/- d/=e/f | [Adfa] z z [Bdfb] | [cegc'] z !fermata!z2!fine! |] %111
V:2
 E,/F,/G,/A,/- A,/B,/C/D/ | E/D/C/B,/- B,/A,/G, | (E/F/E/^D/ E/F/E/D/ | E) || %4
 [E,E][^D,^D][=D,=D] |: G,/A,/G, [G,,G,][E,G,C] | C,[G,CE] C,[G,CE] | G,/A,/G, [^C,^C][G,^CE] | %8
 [D,D][G,B,F] G,G, | !>!G,/A,/G, G,,[G,CE] | [C,,C,][G,CE] G,,[E,G,C] | %11
 [^F,,^F,][A,B,^F] [B,,,B,,][A,^DF] | [E,,E,] !>![E,E]!>![^D,^D]!>![=D,=D] | %13
 G,/A,/G, [G,,G,][E,G,C] | C,[E,G,C] C,[E,G,C] | [B,,B,][E,,E,] [^F,,^F,][^G,,^G,] | [A,,A,] z z2 | %17
 [D,,D,][F,A,D] [F,,F,][F,A,D] | [^F,,^F,][F,A,^D] [G,,G,][G,CE] | %19
 [G,,G,]!>![A,,A,]!>![B,,B,]!>![G,,G,] |1 [C,C]!>![E,E]!>![^D,^D]!>![=D,=D] :|2 %21
 [C,,C,] E/F/- F/^D/E |: [E,E][D,D][C,C][B,,B,] | [A,,A,][E,A,C] [E,,E,][E,A,C] | %24
 B,,[E,^G,D] E,,[E,G,D] | A,,[E,A,C] C,[E,A,C] | [E,E][D,D][C,C][B,,B,] | %27
 [A,,A,][E,A,C] [E,,E,][E,A,C] | [F,,F,] !>![B,^DA]2 !>![F,,F,] | [E,,E,]E/F/- F/^D/E | %30
 [E,E][D,D][C,C][B,,B,] | [A,,A,][E,A,C] [E,,E,][E,A,C] | B,,[E,^G,D] E,,[E,G,D] | %33
 [A,,A,][A,CE] [C,C][E,E] | D,[A,DF] [E,E][D,D] | [E,E][E,A,C] [D,D][C,C] | %36
 [B,,B,][^G,DE] [E,,E,][G,DE] |1 [A,CE] E/F/- F/^D/E :|2 [A,CE]2 ([G,B,D]B,) || %39
 G,/A,/G, [G,,G,][E,G,C] | C,[E,G,C] G,,[E,G,C] | G,/A,/G, [^C,^C][G,CE] | [D,D][G,B,F] G,G, | %43
 G,/A,/G, [G,,G,][E,G,C] | C,[E,G,C] G,,[E,G,C] | [^F,,^F,][A,B,^F] B,,[A,^DF] | %46
 [E,,E,] !>![E,E]!>![^D,^D]!>![=D,=D] | G,/A,/G, [G,,G,][E,G,C] | C,[E,G,C] G,,[E,G,C] | %49
 [B,,B,][E,,E,] [^F,,^F,][^G,,^G,] | [A,,A,][A,CE] z2 | [D,,D,][F,A,D] [F,,F,][F,A,D] | %52
 [^F,,^F,][F,A,^D] [G,,G,][G,CE] | !>![G,,G,]!>![A,,A,] !>![B,,B,]!>![G,,G,] | %54
 !>![C,C] z z [^A,,^A,] |: [B,,B,][G,B,F] !>![G,,G,]!>![F,,F,] | %56
"^cresc.    poco" !>![E,,E,][G,CE] [E,E][D,D] |"^a   poco" [^C,^C][E,G,A,C] !>![A,,A,]!>![G,,G,] | %58
 [F,,F,][F,A,D] [D,D][^C,^C] | [D,D][G,B,F] [G,,G,][G,B,F] | [D,D][G,B,F] !>![G,,G,]!>![B,,B,] | %61
 [C,C][G,CE] [E,,E,][G,CE] | [G,,G,][E,G,C] [C,C][^A,,^A,] | %63
 [B,,B,][D,F,G,B,] !>![G,,G,]!>![F,,F,] | %64
 [E,,E,]"^cresc.      poco         a        poco"[G,CE] !>![E,E]!>![D,D] | %65
 !>![^C,^C][G,CE] !>![A,,A,]!>![G,,G,] | [F,,F,][F,A,D] [D,,D,][F,,F,] | %67
 !>![^F,,^F,]!>![G,,G,] !>![A,,A,]!>![^F,,^F,] | [G,,G,][G,CE] [E,,E,][^C,,^C,] | %69
 [D,,D,][F,A,D] [G,,G,][D,G,B,] |1 [C,G,C] z z [^A,,^A,] :|2 [C,G,C] z z !>![A,,A,] || %72
 !>![B,,B,]^F,/B,/- (B,/[I:staff -1]^F/B) |[I:staff +1] !>![C,C] !>![A,,A,]2 !>![A,,A,] | %74
 !>![B,,B,](B,/^A,/ B,) ||[K:G] z | [E,G,B,][E,G,B,] !>![E,G,_B,^C]2 | [E,G,A,=C]2 [^D,F,A,C]2 | %78
 [E,G,B,][E,G,B,] [E,G,_B,^C]2 | [E,A,=C]2 [^D,A,C](F/G/ | A)(^D/E/ F)(C/^C/ | %81
 ^D)(A,/B,/ C)(F,/G,/ | A,)(F,/G,/ A,) !>![A,,A,] | !>![B,,B,] B,/^A,/ B, z | %84
 [E,G,B,][E,G,B,] !>![E,G,_B,^C]2 | [E,G,=A,=C]2 !>![^D,F,A,C]2 | %86
 [E,G,B,][E,G,B,] !>![E,G,_B,^C]2 | [E,A,=C]2 !>![^D,A,C] z | F/=F/E/^D/- D/=D/^C/=C/ | %89
 D/^C/=C/B,/- B,/_B,/A,/_A,/ | G,[K:treble] (G/^F/ G)(G/F/ | G)[K:bass] [E,E][^D,^D][=D,=D] || %92
[K:C] G,/A,/G, [G,,G,][E,G,C] | C,[G,CE] C,[G,CE] | G,/A,/G, [^C,^C][G,^CE] | [D,D][G,B,F] G,G, | %96
 !>!G,/A,/G, G,,[G,CE] | [C,,C,][G,CE] G,,[E,G,C] | [^F,,^F,][A,B,^F] [B,,,B,,][A,^DF] | %99
 [E,,E,] !>![E,E]!>![^D,^D]!>![=D,=D] | G,/A,/G, [G,,G,][E,G,C] | C,[E,G,C] C,[E,G,C] | %102
 [B,,B,][E,,E,] [^F,,^F,][^G,,^G,] | [A,,A,] z z2 | [D,,D,][F,A,D] [F,,F,][F,A,D] | %105
 [^F,,^F,][F,A,^D] [G,,G,][G,CE] | !>![G,,G,]!>![A,,A,]!>![B,,B,]!>![G,,G,] || [C,E,G,C] z z2 | %108
 z4 | D,E,/F,/- F,/D,/[G,,G,] | [C,,C,] z z2 |] %111
V:3
 x4 | x4 | x4 | x || x3 |: C,2 x2 | x4 | C,2 x2 | x2 D(F/^F/) | C,2 x2 | x4 | x4 | x4 | C,2 x2 | %14
 x4 | x4 | x4 | x4 | x4 | x4 |1 x4 :|2 x4 |: x4 | x4 | x4 | x4 | x4 | x4 | x4 | x4 | x4 | x4 | x4 | %33
 x4 | x4 | x4 | x4 |1 x4 :|2 x4 || C,2 x2 | x4 | C,2 x2 | x2 D(F/^F/) | C,2 x2 | x4 | x4 | x4 | %47
 C,2 x2 | x4 | x4 | x4 | x4 | x4 | x4 | x4 |: x4 | x4 | x4 | x4 | x4 | x4 | x4 | x4 | x4 | x4 | %65
 x4 | x4 | x4 | x4 | x4 |1 x4 :|2 x4 || x4 | x4 | x3 ||[K:G] x | x4 | x4 | x4 | x4 | x4 | x4 | x4 | %83
 x4 | x4 | x4 | x4 | x4 | x4 | x4 | x[K:treble] x3 | x[K:bass] x3 ||[K:C] C,2 x2 | x4 | C,2 x2 | %95
 x2 D(F/^F/) | C,2 x2 | x4 | x4 | x4 | C,2 x2 | x4 | x4 | x4 | x4 | x4 | x4 || x4 | x4 | x4 | x4 |] %111
V:4
 x4 | x4 | x4 | x || x3 |: x4 | x4 | x4 | ff/e/ x2 | x4 | x4 | x4 | x4 | x4 | x4 | x4 | x4 | x4 | %18
 x4 | x4 |1 x4 :|2 x4 |: x4 | x4 | x4 | x4 | x4 | x4 | ^dd- dd | x4 | x4 | x4 | x4 | x4 | x4 | x4 | %36
 x4 |1 x4 :|2 x4 || x4 | x4 | x4 | f!<(!f/e/ x2!<)! | x4 | x4 | x4 | x4 | x4 | x4 | x4 | x4 | x4 | %52
 x4 | x4 | x4 |: x4 | x4 | x4 | x4 | x4 | x4 | x4 | x4 | x4 | x4 | x4 | x4 | x4 | x4 | x4 |1 x4 :|2 %71
 x4 || x4 | x4 | x3 ||[K:G] x | x4 | x4 | x4 | x4 | x4 | x4 | x2 C2 | x4 | x4 | x4 | x4 | x4 | x4 | %89
 x4 | x4 | x4 ||[K:C] x4 | x4 | x4 | x4 | x4 | x4 | x4 | x4 | x4 | x4 | x4 | x4 | x4 | x4 | x4 || %107
 x4 | x4 | x4 | x4 |] %111

